**harm	**harte	**timestamp	**phrase	**leadinstrument	**kern
*M4/4	*M4/4	*	*	*	*
*E:	*E:	*	*	*	*E:
1r;	N	0	.	r	1r;
=1	=1	=1	=1	=1	=1
*>D_intro	*>D_intro	*>D_intro	*>D_intro	*>D_intro	*>D_intro
1V	B:maj	0.395	newline	guitar	1B 1dd# 1ff#
=2	=2	=2	=2	=2	=2
1I	E:maj	2.264	.	guitar	1E 1g# 1b
=3	=3	=3	=3	=3	=3
1V	B:maj	4.133	.	guitar	1B 1dd# 1ff#
=4	=4	=4	=4	=4	=4
1I	E:maj	6.002	.	guitar	1E 1g# 1b
=5	=5	=5	=5	=5	=5
1V	B:maj	7.872	newline	guitar	1B 1dd# 1ff#
=6	=6	=6	=6	=6	=6
1Ic	E:maj/5	9.688	.	guitar	1e 1g# 1B
=7	=7	=7	=7	=7	=7
1V	B:maj	11.504	.	guitar	1B 1dd# 1ff#
=8	=8	=8	=8	=8	=8
1IV	A:maj	13.32	.	guitar	1A 1cc# 1ee
=9	=9	=9	=9	=9	=9
1IV	A:maj	15.136	.	guitar	1A 1cc# 1ee
=10	=10	=10	=10	=10	=10
*>A_verse	*>A_verse	*>A_verse	*>A_verse	*>A_verse	*>A_verse
1I	E:maj	16.952	newline	voice	1E 1g# 1b
=11	=11	=11	=11	=11	=11
1I	E:maj	18.764	.	voice	1E 1g# 1b
=12	=12	=12	=12	=12	=12
4-VIIc	D:maj/5	20.576	.	voice	4d 4f# 4A
2.IV	A:maj	21.029	.	voice	2A 2cc# 2ee
=13	=13	=13	=13	=13	=13
2-VIIc	D:maj/5	22.387	.	voice	2d 2f# 2A
2IV	A:maj	23.293	.	voice	2A 2cc# 2ee
=14	=14	=14	=14	=14	=14
1I	E:maj	24.199	newline	voice	1E 1g# 1b
=15	=15	=15	=15	=15	=15
1I	E:maj	26.015	.	voice	1E 1g# 1b
=16	=16	=16	=16	=16	=16
4-VIIc	D:maj/5	27.832	.	voice	4d 4f# 4A
2.IV	A:maj	28.286	.	voice	2A 2cc# 2ee
=17	=17	=17	=17	=17	=17
4Ic	E:maj/5	29.648	.	voice	4e 4g# 4B
2.V	B:maj	30.102	.	voice	2B 2dd# 2ff#
=18	=18	=18	=18	=18	=18
*>B_prechorus	*>B_prechorus	*>B_prechorus	*>B_prechorus	*>B_prechorus	*>B_prechorus
1vi	C#:min	31.464	newline	voice	1C# 1e 1g#
=19	=19	=19	=19	=19	=19
1iii	G#:min	33.277	.	voice	1G# 1b 1dd#
=20	=20	=20	=20	=20	=20
1IV	A:maj	35.089	.	voice	1A 1cc# 1ee
=21	=21	=21	=21	=21	=21
2-VII	D:maj	36.902	.	voice	2D 2f# 2a
2IV	A:maj	37.808	.	voice	2A 2cc# 2ee
=22	=22	=22	=22	=22	=22
1I	E:maj	38.714	newline	voice	1E 1g# 1b
=23	=23	=23	=23	=23	=23
1IV	A:maj	40.519	.	voice	1A 1cc# 1ee
=24	=24	=24	=24	=24	=24
1I	E:maj	42.325	.	voice	1E 1g# 1b
=25	=25	=25	=25	=25	=25
1IV	A:maj	44.13	.	voice	1A 1cc# 1ee
=26	=26	=26	=26	=26	=26
1I	E:maj	45.935	newline	voice	1E 1g# 1b
=27	=27	=27	=27	=27	=27
1V	B:maj	47.771	.	voice	1B 1dd# 1ff#
=28	=28	=28	=28	=28	=28
1IV	A:maj	49.607	.	voice	1A 1cc# 1ee
=29	=29	=29	=29	=29	=29
1IV	A:maj(9)	51.443	.	voice	1A 1cc# 1ee
=30	=30	=30	=30	=30	=30
*>C_chorus	*>C_chorus	*>C_chorus	*>C_chorus	*>C_chorus	*>C_chorus
2vi	C#:min	53.278	newline	guitar	2C# 2e 2g#
2V	B:maj	54.183	.	guitar	2B 2dd# 2ff#
=31	=31	=31	=31	=31	=31
4IV	A:maj	55.088	.	guitar	4A 4cc# 4ee
2.I	E:maj	55.54	.	guitar	2E 2g# 2b
=32	=32	=32	=32	=32	=32
2V	B:maj	56.897	.	guitar	2B 2dd# 2ff#
4IV	A:maj	57.802	.	guitar	4A 4cc# 4ee
4iii	G#:min	58.254	.	guitar	4G# 4b 4dd#
=33	=33	=33	=33	=33	=33
4ii	F#:min	58.706	.	guitar	4F# 4a 4cc#
4IV	A:maj	59.159	.	guitar	4A 4cc# 4ee
2I	E:maj	59.611	.	guitar	2E 2g# 2b
=34	=34	=34	=34	=34	=34
2vi	C#:min	60.516	newline	voice	2C# 2e 2g#
2V	B:maj	61.433	.	voice	2B 2dd# 2ff#
=35	=35	=35	=35	=35	=35
4IV	A:maj	62.35	.	voice	4A 4cc# 4ee
2.I	E:maj	62.809	.	voice	2E 2g# 2b
=36	=36	=36	=36	=36	=36
2V	B:maj	64.185	.	voice	2B 2dd# 2ff#
4IV	A:maj	65.102	.	voice	4A 4cc# 4ee
4iii	G#:min	65.561	.	voice	4G# 4b 4dd#
=37	=37	=37	=37	=37	=37
4ii	F#:min	66.02	.	voice	4F# 4a 4cc#
4IV	A:maj	66.478	.	voice	4A 4cc# 4ee
2I	E:maj	66.937	.	voice	2E 2g# 2b
=38	=38	=38	=38	=38	=38
2vi	C#:min	67.854	newline	voice	2C# 2e 2g#
2V	B:maj	68.768	.	voice	2B 2dd# 2ff#
=39	=39	=39	=39	=39	=39
4IV	A:maj	69.683	.	voice	4A 4cc# 4ee
2.I	E:maj	70.14	.	voice	2E 2g# 2b
=40	=40	=40	=40	=40	=40
2V	B:maj	71.511	.	voice	2B 2dd# 2ff#
4IV	A:maj	72.426	.	voice	4A 4cc# 4ee
4iii	G#:min	72.883	.	voice	4G# 4b 4dd#
=41	=41	=41	=41	=41	=41
4ii	F#:min	73.34	.	voice	4F# 4a 4cc#
4IV	A:maj	73.797	.	voice	4A 4cc# 4ee
2I	E:maj	74.254	.	voice	2E 2g# 2b
=42	=42	=42	=42	=42	=42
2vi	C#:min	75.169	newline	voice	2C# 2e 2g#
2V	B:maj	76.077	.	voice	2B 2dd# 2ff#
=43	=43	=43	=43	=43	=43
4IV	A:maj	76.985	.	voice	4A 4cc# 4ee
2.I	E:maj	77.439	.	voice	2E 2g# 2b
=44	=44	=44	=44	=44	=44
2V	B:maj	78.801	.	voice	2B 2dd# 2ff#
4IV	A:maj	79.709	.	voice	4A 4cc# 4ee
4iii	G#:min	80.162	.	voice	4G# 4b 4dd#
=45	=45	=45	=45	=45	=45
4ii	F#:min	80.616	.	voice	4F# 4a 4cc#
4IV	A:maj	81.07	.	voice	4A 4cc# 4ee
2I	E:maj	81.524	.	voice	2E 2g# 2b
=46	=46	=46	=46	=46	=46
2vi	C#:min	82.432	newline	guitar	2C# 2e 2g#
2V	B:maj	83.338	.	guitar	2B 2dd# 2ff#
=47	=47	=47	=47	=47	=47
4IV	A:maj	84.244	.	guitar	4A 4cc# 4ee
2.I	E:maj	84.697	.	guitar	2E 2g# 2b
=48	=48	=48	=48	=48	=48
2V	B:maj	86.056	.	guitar	2B 2dd# 2ff#
4IV	A:maj	86.962	.	guitar	4A 4cc# 4ee
4iii	G#:min	87.415	.	guitar	4G# 4b 4dd#
=49	=49	=49	=49	=49	=49
4ii	F#:min	87.868	.	guitar	4F# 4a 4cc#
4IV	A:maj	88.321	.	guitar	4A 4cc# 4ee
2I	E:maj	88.773	.	guitar	2E 2g# 2b
=50	=50	=50	=50	=50	=50
2vi	C#:min	89.679	newline	guitar	2C# 2e 2g#
2V	B:maj	90.585	.	guitar	2B 2dd# 2ff#
=51	=51	=51	=51	=51	=51
4IV	A:maj	91.49	.	guitar	4A 4cc# 4ee
2.I	E:maj	91.942	.	guitar	2E 2g# 2b
=52	=52	=52	=52	=52	=52
2V	B:maj	93.3	.	guitar	2B 2dd# 2ff#
4IV	A:maj	94.206	.	guitar	4A 4cc# 4ee
4iii	G#:min	94.658	.	guitar	4G# 4b 4dd#
=53	=53	=53	=53	=53	=53
4ii	F#:min	95.111	.	guitar	4F# 4a 4cc#
4IV	A:maj	95.563	.	guitar	4A 4cc# 4ee
2I	E:maj	96.016	.	guitar	2E 2g# 2b
=54	=54	=54	=54	=54	=54
*>D_interlude	*>D_interlude	*>D_interlude	*>D_interlude	*>D_interlude	*>D_interlude
1V	B:maj	96.921	newline	guitar	1B 1dd# 1ff#
=55	=55	=55	=55	=55	=55
1Ic	E:maj/5	98.757	.	guitar	1e 1g# 1B
=56	=56	=56	=56	=56	=56
1V	B:maj	100.592	.	guitar	1B 1dd# 1ff#
=57	=57	=57	=57	=57	=57
1Ic	E:maj/5	102.427	.	guitar	1e 1g# 1B
=58	=58	=58	=58	=58	=58
1V	B:maj	104.262	newline	guitar	1B 1dd# 1ff#
=59	=59	=59	=59	=59	=59
1Ic	E:maj/5	106.077	.	guitar	1e 1g# 1B
=60	=60	=60	=60	=60	=60
1V	B:maj	107.892	.	guitar	1B 1dd# 1ff#
=61	=61	=61	=61	=61	=61
1IV	A:maj	109.707	.	guitar	1A 1cc# 1ee
=62	=62	=62	=62	=62	=62
1IV	A:maj	111.522	.	guitar	1A 1cc# 1ee
=63	=63	=63	=63	=63	=63
*>A_verse	*>A_verse	*>A_verse	*>A_verse	*>A_verse	*>A_verse
1I	E:maj	113.337	newline	voice	1E 1g# 1b
=64	=64	=64	=64	=64	=64
1I	E:maj	115.15	.	voice	1E 1g# 1b
=65	=65	=65	=65	=65	=65
4-VIIc	D:maj/5	116.964	.	voice	4d 4f# 4A
2.IV	A:maj	117.418	.	voice	2A 2cc# 2ee
=66	=66	=66	=66	=66	=66
2-VIIc	D:maj/5	118.778	.	voice	2d 2f# 2A
2IV	A:maj	119.685	.	voice	2A 2cc# 2ee
=67	=67	=67	=67	=67	=67
1I	E:maj	120.592	newline	voice	1E 1g# 1b
=68	=68	=68	=68	=68	=68
1I	E:maj	122.411	.	voice	1E 1g# 1b
=69	=69	=69	=69	=69	=69
4-VIIc	D:maj/5	124.23	.	voice	4d 4f# 4A
2.IV	A:maj	124.685	.	voice	2A 2cc# 2ee
=70	=70	=70	=70	=70	=70
4Ic	E:maj/5	126.049	.	voice	4e 4g# 4B
2.V	B:maj	126.504	.	voice	2B 2dd# 2ff#
=71	=71	=71	=71	=71	=71
*>B_prechorus	*>B_prechorus	*>B_prechorus	*>B_prechorus	*>B_prechorus	*>B_prechorus
1vi	C#:min	127.868	newline	voice	1C# 1e 1g#
=72	=72	=72	=72	=72	=72
1iii	G#:min	129.679	.	voice	1G# 1b 1dd#
=73	=73	=73	=73	=73	=73
1IV	A:maj	131.49	.	voice	1A 1cc# 1ee
=74	=74	=74	=74	=74	=74
2-VII	D:maj	133.3	.	voice	2D 2f# 2a
2IV	A:maj	134.206	.	voice	2A 2cc# 2ee
=75	=75	=75	=75	=75	=75
1I	E:maj	135.111	newline	voice	1E 1g# 1b
=76	=76	=76	=76	=76	=76
1IV	A:maj	136.919	.	voice	1A 1cc# 1ee
=77	=77	=77	=77	=77	=77
1I	E:maj	138.727	.	voice	1E 1g# 1b
=78	=78	=78	=78	=78	=78
1IV	A:maj	140.536	.	voice	1A 1cc# 1ee
=79	=79	=79	=79	=79	=79
1I	E:maj	142.344	newline	voice	1E 1g# 1b
=80	=80	=80	=80	=80	=80
1V	B:maj	144.187	.	voice	1B 1dd# 1ff#
=81	=81	=81	=81	=81	=81
1IV	A:maj	146.03	.	voice	1A 1cc# 1ee
=82	=82	=82	=82	=82	=82
1IV	A:maj(9)	147.873	.	voice	1A 1cc# 1ee
=83	=83	=83	=83	=83	=83
*>C_chorus	*>C_chorus	*>C_chorus	*>C_chorus	*>C_chorus	*>C_chorus
2vi	C#:min	149.717	newline	guitar	2C# 2e 2g#
2V	B:maj	150.64	.	guitar	2B 2dd# 2ff#
=84	=84	=84	=84	=84	=84
4IV	A:maj	151.563	.	guitar	4A 4cc# 4ee
2.I	E:maj	152.024	.	guitar	2E 2g# 2b
=85	=85	=85	=85	=85	=85
2V	B:maj	153.409	.	guitar	2B 2dd# 2ff#
4IV	A:maj	154.332	.	guitar	4A 4cc# 4ee
4iii	G#:min	154.794	.	guitar	4G# 4b 4dd#
=86	=86	=86	=86	=86	=86
4ii	F#:min	155.255	.	guitar	4F# 4a 4cc#
4IV	A:maj	155.717	.	guitar	4A 4cc# 4ee
2I	E:maj	156.178	.	guitar	2E 2g# 2b
=87	=87	=87	=87	=87	=87
2vi	C#:min	157.101	newline	voice	2C# 2e 2g#
2V	B:maj	158.02	.	voice	2B 2dd# 2ff#
=88	=88	=88	=88	=88	=88
4IV	A:maj	158.939	.	voice	4A 4cc# 4ee
2.I	E:maj	159.399	.	voice	2E 2g# 2b
=89	=89	=89	=89	=89	=89
2V	B:maj	160.777	.	voice	2B 2dd# 2ff#
4IV	A:maj	161.696	.	voice	4A 4cc# 4ee
4iii	G#:min	162.156	.	voice	4G# 4b 4dd#
=90	=90	=90	=90	=90	=90
4ii	F#:min	162.615	.	voice	4F# 4a 4cc#
4IV	A:maj	163.075	.	voice	4A 4cc# 4ee
2I	E:maj	163.534	.	voice	2E 2g# 2b
=91	=91	=91	=91	=91	=91
2vi	C#:min	164.453	newline	voice	2C# 2e 2g#
2V	B:maj	165.363	.	voice	2B 2dd# 2ff#
=92	=92	=92	=92	=92	=92
4IV	A:maj	166.273	.	voice	4A 4cc# 4ee
2.I	E:maj	166.727	.	voice	2E 2g# 2b
=93	=93	=93	=93	=93	=93
2V	B:maj	168.092	.	voice	2B 2dd# 2ff#
4IV	A:maj	169.001	.	voice	4A 4cc# 4ee
4iii	G#:min	169.456	.	voice	4G# 4b 4dd#
=94	=94	=94	=94	=94	=94
4ii	F#:min	169.911	.	voice	4F# 4a 4cc#
4IV	A:maj	170.366	.	voice	4A 4cc# 4ee
2I	E:maj	170.821	.	voice	2E 2g# 2b
=95	=95	=95	=95	=95	=95
2vi	C#:min	171.73	newline	voice	2C# 2e 2g#
2V	B:maj	172.629	.	voice	2B 2dd# 2ff#
=96	=96	=96	=96	=96	=96
4IV	A:maj	173.528	.	voice	4A 4cc# 4ee
2.I	E:maj	173.978	.	voice	2E 2g# 2b
=97	=97	=97	=97	=97	=97
2V	B:maj	175.326	.	voice	2B 2dd# 2ff#
4IV	A:maj	176.226	.	voice	4A 4cc# 4ee
4iii	G#:min	176.675	.	voice	4G# 4b 4dd#
=98	=98	=98	=98	=98	=98
4ii	F#:min	177.125	.	voice	4F# 4a 4cc#
4IV	A:maj	177.574	.	voice	4A 4cc# 4ee
2I	E:maj	178.024	.	voice	2E 2g# 2b
=99	=99	=99	=99	=99	=99
2vi	C#:min	178.923	newline	guitar	2C# 2e 2g#
2V	B:maj	179.837	.	guitar	2B 2dd# 2ff#
=100	=100	=100	=100	=100	=100
4IV	A:maj	180.751	.	guitar	4A 4cc# 4ee
2.I	E:maj	181.209	.	guitar	2E 2g# 2b
=101	=101	=101	=101	=101	=101
2V	B:maj	182.58	.	guitar	2B 2dd# 2ff#
4IV	A:maj	183.494	.	guitar	4A 4cc# 4ee
4iii	G#:min	183.951	.	guitar	4G# 4b 4dd#
=102	=102	=102	=102	=102	=102
4ii	F#:min	184.408	.	guitar	4F# 4a 4cc#
4IV	A:maj	184.866	.	guitar	4A 4cc# 4ee
2I	E:maj	185.323	.	guitar	2E 2g# 2b
=103	=103	=103	=103	=103	=103
2vi	C#:min	186.237	newline	guitar	2C# 2e 2g#
2V	B:maj	187.138	.	guitar	2B 2dd# 2ff#
=104	=104	=104	=104	=104	=104
4IV	A:maj	188.039	.	guitar	4A 4cc# 4ee
2.I	E:maj	188.489	.	guitar	2E 2g# 2b
=105	=105	=105	=105	=105	=105
2V	B:maj	189.84	.	guitar	2B 2dd# 2ff#
4IV	A:maj	190.741	.	guitar	4A 4cc# 4ee
4iii	G#:min	191.192	.	guitar	4G# 4b 4dd#
=106	=106	=106	=106	=106	=106
4ii	F#:min	191.642	.	guitar	4F# 4a 4cc#
4IV	A:maj	192.093	.	guitar	4A 4cc# 4ee
2I	E:maj	192.543	.	guitar	2E 2g# 2b
=107	=107	=107	=107	=107	=107
2vi	C#:min	193.444	newline	guitar	2C# 2e 2g#
2V	B:maj	194.355	.	guitar	2B 2dd# 2ff#
=108	=108	=108	=108	=108	=108
4IV	A:maj	195.266	.	guitar	4A 4cc# 4ee
2.I	E:maj	195.722	.	guitar	2E 2g# 2b
=109	=109	=109	=109	=109	=109
2V	B:maj	197.089	.	guitar	2B 2dd# 2ff#
4IV	A:maj	198	.	guitar	4A 4cc# 4ee
4iii	G#:min	198.456	.	guitar	4G# 4b 4dd#
=110	=110	=110	=110	=110	=110
4ii	F#:min	198.911	.	guitar	4F# 4a 4cc#
4IV	A:maj	199.367	.	guitar	4A 4cc# 4ee
2I	E:maj	199.823	.	guitar	2E 2g# 2b
=111	=111	=111	=111	=111	=111
2vi	C#:min	200.734	newline	guitar	2C# 2e 2g#
2V	B:maj	201.636	.	guitar	2B 2dd# 2ff#
=112	=112	=112	=112	=112	=112
4IV	A:maj	202.538	.	guitar	4A 4cc# 4ee
2.I	E:maj	202.99	.	guitar	2E 2g# 2b
=113	=113	=113	=113	=113	=113
2V	B:maj	204.343	.	guitar	2B 2dd# 2ff#
4IV	A:maj	205.245	.	guitar	4A 4cc# 4ee
4iii	G#:min	205.696	.	guitar	4G# 4b 4dd#
=114	=114	=114	=114	=114	=114
4ii	F#:min	206.147	.	guitar	4F# 4a 4cc#
4IV	A:maj	206.598	.	guitar	4A 4cc# 4ee
2I	E:maj	207.049	.	guitar	2E 2g# 2b
=115	=115	=115	=115	=115	=115
2vi	C#:min	207.952	newline	guitar	2C# 2e 2g#
2V	B:maj	208.864	.	guitar	2B 2dd# 2ff#
=116	=116	=116	=116	=116	=116
4IV	A:maj	209.776	.	guitar	4A 4cc# 4ee
2.I	E:maj	210.232	.	guitar	2E 2g# 2b
=117	=117	=117	=117	=117	=117
2V	B:maj	211.6	.	guitar	2B 2dd# 2ff#
4IV	A:maj	212.512	.	guitar	4A 4cc# 4ee
4iii	G#:min	212.968	.	guitar	4G# 4b 4dd#
=118	=118	=118	=118	=118	=118
4ii	F#:min	213.424	.	guitar	4F# 4a 4cc#
4IV	A:maj	213.88	.	guitar	4A 4cc# 4ee
2I	E:maj	214.336	.	guitar	2E 2g# 2b
=119	=119	=119	=119	=119	=119
2vi	C#:min	215.248	newline	fadeout	2C# 2e 2g#
2V	B:maj	216.156	.	fadeout	2B 2dd# 2ff#
=120	=120	=120	=120	=120	=120
4IV	A:maj	217.063	.	fadeout	4A 4cc# 4ee
2.I	E:maj	217.517	.	fadeout	2E 2g# 2b
=121	=121	=121	=121	=121	=121
2V	B:maj	218.879	.	fadeout	2B 2dd# 2ff#
4IV	A:maj	219.786	.	fadeout	4A 4cc# 4ee
4iii	G#:min	220.24	.	fadeout	4G# 4b 4dd#
=122	=122	=122	=122	=122	=122
4ii	F#:min	220.694	.	fadeout	4F# 4a 4cc#
4IV	A:maj	221.148	.	fadeout	4A 4cc# 4ee
2I	E:maj	221.601	.	fadeout	2E 2g# 2b
=123	=123	=123	=123	=123	=123
2vi	C#:min	222.509	newline	fadeout	2C# 2e 2g#
2V	B:maj	223.413	.	fadeout	2B 2dd# 2ff#
=124	=124	=124	=124	=124	=124
4IV	A:maj	224.318	.	fadeout	4A 4cc# 4ee
2.I	E:maj	224.77	.	fadeout	2E 2g# 2b
=125	=125	=125	=125	=125	=125
2V	B:maj	226.126	.	fadeout	2B 2dd# 2ff#
4IV	A:maj	227.03	.	fadeout	4A 4cc# 4ee
4iii	G#:min	227.483	.	fadeout	4G# 4b 4dd#
=126	=126	=126	=126	=126	=126
4ii	F#:min	227.935	.	fadeout	4F# 4a 4cc#
4IV	A:maj	228.387	.	fadeout	4A 4cc# 4ee
2I	E:maj	228.839	.	fadeout	2E 2g# 2b
=127	=127	=127	=127	=127	=127
2vi	C#:min	229.743	newline	fadeout	2C# 2e 2g#
2V	B:maj	230.647	.	fadeout	2B 2dd# 2ff#
=128	=128	=128	=128	=128	=128
4IV	A:maj	231.552	.	fadeout	4A 4cc# 4ee
2.I	E:maj	232.004	.	fadeout	2E 2g# 2b
=129	=129	=129	=129	=129	=129
2V	B:maj	233.36	.	fadeout	2B 2dd# 2ff#
4IV	A:maj	234.264	.	fadeout	4A 4cc# 4ee
4iii	G#:min	234.716	.	fadeout	4G# 4b 4dd#
=130	=130	=130	=130	=130	=130
4ii	F#:min	235.168	.	fadeout	4F# 4a 4cc#
4IV	A:maj	235.621	.	fadeout	4A 4cc# 4ee
2I	E:maj	236.073	.	fadeout	2E 2g# 2b
=131	=131	=131	=131	=131	=131
2vi	C#:min	236.977	newline	fadeout	2C# 2e 2g#
2V	B:maj	237.886	.	fadeout	2B 2dd# 2ff#
=132	=132	=132	=132	=132	=132
4IV	A:maj	238.795	.	fadeout	4A 4cc# 4ee
2.I	E:maj	239.25	.	fadeout	2E 2g# 2b
=133	=133	=133	=133	=133	=133
2V	B:maj	240.614	.	fadeout	2B 2dd# 2ff#
4IV	A:maj	241.523	.	fadeout	4A 4cc# 4ee
4iii	G#:min	241.977	.	fadeout	4G# 4b 4dd#
=134	=134	=134	=134	=134	=134
4ii	F#:min	242.432	.	fadeout	4F# 4a 4cc#
4IV	A:maj	242.887	.	fadeout	4A 4cc# 4ee
2I	E:maj	243.341	.	fadeout	2E 2g# 2b
=135	=135	=135	=135	=135	=135
2vi	C#:min	244.25	newline	guitar	2C# 2e 2g#
2V	B:maj	245.142	.	guitar	2B 2dd# 2ff#
=136	=136	=136	=136	=136	=136
4IV	A:maj	246.033	.	guitar	4A 4cc# 4ee
2.I	E:maj	246.478	.	guitar	2E 2g# 2b
=137	=137	=137	=137	=137	=137
2V	B:maj	247.815	.	guitar	2B 2dd# 2ff#
4IV	A:maj	248.706	.	guitar	4A 4cc# 4ee
4iii	G#:min	249.152	.	guitar	4G# 4b 4dd#
=138	=138	=138	=138	=138	=138
4ii	F#:min	249.597	.	guitar	4F# 4a 4cc#
4IV	A:maj	250.043	.	guitar	4A 4cc# 4ee
2I	E:maj	250.488	.	guitar	2E 2g# 2b
1r;	N	251.379	.	r	1r;
1r;	N	251.507	.	r	1r;
*-	*-	*-	*-	*-	*-
!!!OTL: Feelin' Satisfied
!!!COC: Boston
!!!BillboardChartDate: 1979/03/31
!!!BillboardPeak: 46
!!!BillboardWeeksOnChart: 7
!!!SampleTargetRank: 66
!!!SampleActualRank: 65
!!!SampleID#: 0952
!!!RDF**harmony: **recip + pitch class of root + harmonic quality
!!!RDF**harte: Chris Harte's syntax, used by MIREX
!!!RDF**phrase: newline = linebreak in original McGill transcription
!!!RDF**timestamp: McGill audio timestamp in seconds
!!!RDF**leadinstrument: original McGill primary instrumentation annotation
!!!RDT: 2017/01/12/
!!!ENC: Nathaniel Condit-Schultz
!!!EST: Awating manual error checking and editing.
